X:10079
T:Magic Slipper
M:2/4
L:1/8
Q:80
R:Polka
K:D
|:F|A>B AF|DF Ad|A>B AF|GF E>F|
|E<D EF|GA Bc|d e/2f/2e/2d/2 c|1ed BA:|2ed fa|
|:g|fd ge|fd cB|AB de|fe ed/2|
|e/2f dg|ef dc|BA ge|c d2 d:|
